X:174
T:Charming Maid
C:John Young, 1728
L:1/8
M:2/2
R:Reel
%%MIDI program 71     Clarinet
S:Colin Hume's website,  colinhume.com  - chords can also be printed below the stave.
Q:1/2=100
K:G
P:A
|: "G"G,A,B,C "D7"DCB,A, | "G"G,2 G2F2G2 | "D7"A4 "G"B4 | "Am"cBAG "D7"FABc |\
"G"d2D2 "C"c4 | "G"B2c2 "Am"A2G2 | "D7"F2G2 (BA)(GF) | "G"G8 :|
P:B
"D"DEFG AGFE | "D7"DEFG A2D2 | "G"GABc dcBA | "G7"GABc d2G2 |\
"C"cBcd efed | "Am"cdcB ABcd | "C"edcB cBAG | "D7"F4 D2Bc |
"G"dBGB dBGB | "D7"A4 D2Bc | "G"dBGB dBGB | "D7"A4 D2F2 |\
"G"G2A2 B2c2 | "G"d4 "Em"gfed | "Am"edcB "D7"A3G | "G"G8 |]

